X:1
T:20 Mélodies
T:Rêverie
T:17. Rêverie...
T:20 Mélodies 
T:Augusta Holmès
T:(Holmès)
T:OpenScore (CC0)
T:OpenScore (CC0)
T:OpenScore (CC0)
T:OpenScore (CC0)
C:Holmès, Augusta Mary Anne
Z:OpenScore (CC0)
%%score 1 { ( 2 3 ) | ( 4 5 ) }
L:1/8
Q:1/4=50
M:4/4
K:F
V:1 treble nm="Chant\nVoice"
V:2 treble nm="Piano"
V:3 treble 
V:4 bass 
V:5 bass 
V:1
"^Largo""_Largo" z8 | z8 | z8 | z4 (3:2:2z2!p! D (3D F G | A2- A A!<(! B2- (3B B B!<)! | %5
w: |||«La plaine et ses|fleurs, * la mer _ et ses|
!mf!!>(! (d2 A2-)!>)!!p! A F (3F G A | A E- (3E C D E2 E2 | %7
w: va- gues,  _ La sour- ce qui|bril- le _ au dé- clin du|
{F} E4- (3E !fermata!z D!f! (3D F3/2 G/ |!<(! A2- (3A A A!<)! _e3 e | %9
w: jour,  _ Et l'im- men- se|nuit _ aux é- toi- les|
!>(! d2 G2!>)!!mp! (3G z!<(! G (3G A B!<)! |!f! (!^!dA-) (3A!p! F G A2 A2 | %11
w: va- tues, _ Je don- ne- rais|tout _ _ pour un mot d'a-|
!>(!{A} D4- D2-!pp! D!>)! z ||!f!!>(!{/A} d4-!>)! d z"^sans presser" (F/E/D/F/ | %13
w: mour!» _ _|Ah!  _ «Is- * * *|
 (E C/) D/!>(! E2-) E4!>)! | z4 (3z!p! D E (3F E F | D4- (3:2:4D/ z/ D E (3F E F | %16
w: tam- * bou- li!» _|J'ai le mal du pa-|\- ys,  _ du pa- ys que j'i-|
!>(! (D>^F) F4-!pp! F!>)! z |!f!{A} d4- d!pp!"^rall." (D/E/[Q:1/4=45] F/E/D/F/ | %18
w: gno- * re! _|Ah! _ «Is- * * * * *|
[Q:1/4=40] (E ^C/) D/ E4-) E !fermata!z/ C/ | %19
w: tam- * bou- li!» _ Qui|
"^a Tempo."[Q:1/4=50]{/^C} E2!<(! (3C{/E} D3/2 C/!<)! ^A4- | %20
w: donc m'em- por- te- ra|
!>(! ^A4-!>)! (3:2:4A/ z/ (^C ^D (3E (D3/2 C/) | ^G4({^FG)F} E4 |"^morendo" D4-) D2- D z | z8 | %24
w: _ _ Vers l'a- zur et l'au-|\- ro- *|re! _ _||
 z8 | !fermata!z4 (3:2:2z2!mf! D (3D F G |!<(! A2- A A B2- (3B B B!<)! | %27
w: |«Le ciel des Hou-|ris _ où l'âme _ est ra-|
!f! (d2!>(! A2-)!>)! A!p!!<(! F/ F/ (3:2:2G2 A!<)! | (AE-) (3E C D E2 E2 | %29
w: vie- e,  _ Mon sau- va- ge|cœur _ _ que l'on peut bri-|
{F} E4- (3E !fermata!z!f! D (3D F G | A2- (3A z A!ff! !^!_e2- (3e !tenuto!e !tenuto!e | %31
w: ser,  _ Ma joie et mes|pleurs _ mon sang _ et ma|
 (!tenuto!d2 G2-) (3G z!mf!!<(! G (3G A B!<)! |!f! (dA-) (3A!p! F G A2 A2 |{/A} D4- D2- D z || %34
w: vie- e,  _ Je don- ne- rais|tout _ _ pour un seul bai-|ser!  _ _|
!f!{/A} d4- d z!p!"^sans presser" (F/E/D/F/ | (E C/) D/!>(! E2-) E4!>)! | z4 (3z!p! D E (3F E F | %37
w: Ah!  _ «Is- * * *|tam- * bou- li!» _|J'ai le mal du pa-|
 D4- (3:2:4D/ z/ D E (3F E F |!>(! (D>^F) F2- F2-!pp! F!>)! z | %39
w: ys,  _ du pa- ys que j'i-|gno- * re!  _ _|
!f!{A} d4- d!pp!"^rall." (D/E/[Q:1/4=45] F/E/D/F/ |[Q:1/4=40] (E ^C/) D/ E4-) E !fermata!z/ C/ | %41
w: Ah!  _ «Is- * * * * *|tam- * bou- li!» _ Qui|
"^a Tempo."[Q:1/4=50]{/^C} E2!<(! (3=C{/E} D3/2 C/!<)! ^A4- | %42
w: donc m'em- por- te- ra|
!>(! ^A4-!>)! (3:2:4A/ z/ (^C ^D (3E D3/2 C/ |!>(! ^G4({^FG)F} E4 | %44
w: _ _ Vers l'a- zur et l'au-|ro- *|
!pp!"^rall."[Q:1/4=40] E8-)!>)! | E z z2 z4 |] %46
w: re!|_|
V:2
!>(! [D_A]4!>)!!p!!>(! [DF]4!>)! |!>(! !^![D_A]4!>)!!p!!>(! [DF]4!>)! | %2
!p!!>(! (3:2:2=B =A2- A2- A4-!>)! |"_morendo" A4- A2 z2 |!p!!<(! ([df]4 [de]4!<)! | [df]8) | %6
 ([ea]4!p! [^Gde]4 | [G^ce]4-) [Gce] !fermata!z z2 |!f!!<(! ([FA]4 [^FA_e]4!<)! | %9
!>(! [GBd]4-) [GBd]2-!>)! [GBd] z |!f! !^![Fd]2- [Fd] z!p! [^CGA]4 | %11
!>(! [D^FA]4- [DFA]2-!>)! [DFA] z ||!f!!>(! !^![D_A]4!>)!!mf!!>(! !^![DA]4!>)! | %13
!p!!>(! (3:2:2=B A2- A2- A4!>)! |!p! (3:2:2A!>(! G2- G2- G4- | [=B,FG]6- [B,FG]!>)! z | %16
!pp!!>(! =B A3- A2- A!>)! z |!mf!!>(! !^![D_A]4!>)!"^rall."!>(! !^![DA]4!>)! | %18
!pp! (B A3-) !fermata!A4- |"^a Tempo." A2- A z (3:2:2^G ^F2- F2- |!>(! [^A,E^F]6-!>)! [A,EF] z | %21
!>(! (3:2:2^f e2- e2- e4- | e2- e!>)! z!p!!>(! (3:2:2=B A2- A2!>)! | %23
!>(! (3:2:2_A, B,2- B,2!>)!!p!!>(! (3:2:2=B =A2- A2!>)! | !^![D_A]4!p! [DF]4- | [DF]4- [DFA] z z2 | %26
!p!!<(! ([df]4 [de]4!<)! |!f! [df]8) |!p! ([ea]4 [^Gde]4 | %29
!f!!>(! [G^ce]4-)!>)! [Gce] !fermata!z z2 |!f! [FA]4!ff! (!^![^FA_e]4 | %31
!>(! !^![GBd]4-) [GBd]2-!>)! [GBd] z |!f! !^![Fd]2- [Fd] z!p! [^CGA]4 | %33
!>(! [D^FA]4- [DFA]2-!>)! [DFA] z ||!f! !^![D_A]4!mf! !^![DA]4 |!p!!>(! (3:2:2=B A2- A2- A4!>)! | %36
!p! (3:2:2A!>(! G2- G2- G4- | [=B,FG]6-!>)! [B,FG] z |!pp! =B A3- A2- A z | %39
!>(! !^![D_A]4!>)!!p! [DA]4 | =B A3- !fermata!A4- |"^a Tempo." A2- A z (3:2:2^G!>(! ^F2- F2-!>)! | %42
 [^A,E^F]6- [A,EF] z | (3:2:2^f e2-!>(! e2- e2- e!>)! z | (3:2:2a g2-"^rall." g2- g4- | %45
 g z z2 !fermata!z4 |] %46
V:3
 (3:2:2_A, B,2- B,2 (3:2:2=B =A2- A2 | (3:2:2_A, B,2- B,2 (3:2:2=B =A2- A2 | [DF]8- | %3
 [DF]4- [DF]2 x2 | x8 | x8 | x8 | (_B2 A2-) A x x2 | x8 | x8 | x8 | x8 || %12
 (3:2:2_A, B,2- B,2 (3:2:2A, B,2- B,2 | [CE]4- [CE]4 | [=B,F]8- | x8 | [D^F]4- [DF]2- [DF] x | %17
 (3:2:2_A, B,2- B,2 (3:2:2A, B,2- B,2 | !fermata![^C^c]8- | [^Cc]2- [Cc] x [^A,E]4- | x8 | %21
 [^Gd]8- | [^Gd]2- [Gd] z [D=F]4 | [D_A]4 [DF]4 | (3:2:2_A, B,2- B,2 (3:2:2=B =A2- A2- | %25
 !fermata!A4- z x x2 | x8 | x8 | x8 | (_B2 A2-) A x x2 | x8 | x8 | x8 | x8 || %34
 (3:2:2_A, B,2- B,2 (3:2:2A, B,2- B,2 | [CE]4- [CE]4 | [=B,F]8- | x8 | [D^F]4- [DF]2- [DF] x | %39
 (3:2:2_A, B,2- B,2 (3:2:2A,"^rall." B,2- B,2 | !fermata![^C^c]8- | [^C^c]2- [Cc] x [^A,E]4- | x8 | %43
 [^Gd]4- [Gd]2- [Gd] x | [ce]8- | [ce] x x2 x4 |] %46
V:4
!ped! (3:2:2F,, F,,2- F,,2!ped-up!!ped! (3:2:2=A,, A,,2- A,,2!ped-up! | %1
!ped! (3:2:2F,, F,,2- F,,2!ped-up!!ped! (3:2:2=A,, A,,2- A,,2!ped-up! | %2
!ped! (3:2:2A,, A,,2- A,,2- A,,4- | A,,4- A,,2!ped-up! z2 |[K:treble] ([DFA]4 [DGB]4 | [DFA]8) | %6
 (([CE]4 [=B,E]4 | [A,^CE]4-)) [A,CE] !fermata!z z2 | (D4 C4 | B,4-) B,2- B, z | %10
 !^!A,2- A, z[K:bass] [A,,E,A,]4 | [D,A,]4- [D,A,]2- [D,A,] z || %12
!ped! (3:2:2F,, F,,2- F,,2!ped-up!!ped! (3:2:2F,, F,,2- F,,2!ped-up! | %13
!ped! (3:2:2A,,, A,,2- A,,2- A,,4!ped-up! |!ped! (3:2:2D, G,2- G,2- G,4- | G,6- G,!ped-up! z | %16
 D,, A,,3- A,,2- A,, z |!ped! (3:2:2F,, F,,2- F,,2!ped-up!!ped! (3:2:2F,, F,,2- F,,2!ped-up! | %18
"_una corda"!ped! A,,- [A,,E,]3- !fermata![A,,E,]4- | %19
 [A,,E,]2- [A,,E,]!ped-up! z!ped! (3:2:2^C,- [C,^F,]2- [C,F,]2- | %20
 [^F,,^C,^F,]6- [F,,C,F,]!ped-up! z |!ped! (3:2:2E,- [E,=B,]2- [E,B,]2- [E,B,]4- | %22
 [E,=B,]2- [E,B,]!ped-up! z!ped! (3:2:2A,, A,,2- A,,2!ped-up! | %23
!ped! (3:2:2F,, F,,2- F,,2!ped-up!!ped! (3:2:2=A,, A,,2- A,,2!ped-up! | %24
!ped! (3:2:2F,, F,,2- F,,2!ped-up! (3:2:2=A,, A,,2- A,,2- | [D,,A,,]4- [D,,A,,] z z2 | %26
[K:treble] ([DFA]4 [DGB]4 | [DFA]8) | (([CE]4 [=B,E]4 | [A,^CE]4-)) [A,CE] !fermata!z z2 | %30
 D4 (!^!C4 | !^!B,4-) B,2- B, z | !^!A,2- A, z[K:bass] [A,,E,A,]4 | [D,A,]4- [D,A,]2- [D,A,] z || %34
 (3:2:2F,, F,,2- F,,2 (3:2:2F,, F,,2- F,,2 | (3:2:2A,,, A,,2- A,,2- A,,4 | %36
!ped! (3:2:2D, G,2- G,2- G,4- | G,6- G,!ped-up! z |"_una corda" D,, A,,3- A,,2- A,, z | %39
!ped! (3:2:2F,, F,,2- F,,2!ped-up!!ped! (3:2:2F,, F,,2- F,,2!ped-up! | %40
"_una corda"!ped! (A,,- [A,,E,]3-) !fermata![A,,E,]4- | %41
 [A,,E,]2- [A,,E,]!ped-up! z!ped! (3:2:2^C,- [C,^F,]2- [C,F,]2- | %42
 [^F,,^C,^F,]6- [F,,C,F,]!ped-up! z |!ped! (3:2:2E,- [E,=B,]2- [E,B,]2- [E,B,]2- [E,B,]!ped-up! z | %44
"_una corda" (3:2:2C,- [C,G,]2- [C,G,]2- [C,G,]4- | [C,G,] z z2 !fermata!z4 |] %46
V:5
 !^![B,,,B,,]4 D,,4 | [B,,,B,,]4 D,,4 | D,,8- | D,,4- D,,2 x2 |[K:treble] x8 | x8 | x8 | x8 | x8 | %9
 x8 | x4[K:bass] x4 | x8 || !^![B,,,B,,]4 !^![B,,,B,,]4 | A,,,4- A,,,4 | [G,,D,]8- | %15
 [G,,D,]6- [G,,D,] x | D,,4- D,,2- D,, x | !^![B,,,B,,]4 !^![B,,,B,,]4 | !fermata!A,,,8- | %19
 A,,,2- A,,, x ^F,,4- | x8 | E,,8- | E,,2- E,, z D,,4 | [B,,,B,,]4 D,,4 | !^![B,,,B,,]4 D,,4- | %25
 x8 |[K:treble] x8 | x8 | x8 | x8 | x8 | x8 | x4[K:bass] x4 | x8 || !^![B,,,B,,]4 [B,,,B,,]4 | %35
 A,,,4- A,,,4 | [G,,D,]8- | [G,,D,]6- [G,,D,] x | D,,4- D,,2- D,, x | [B,,,B,,]4 [B,,,B,,]4 | %40
 !fermata!A,,,8- | A,,,2- A,,, x ^F,,4- | x8 | E,,4- E,,2- E,, z | C,,8- | C,, x x2 x4 |] %46

